images/service-1/norms-1.svg

<svg width="90" height="90" viewBox="0 0 90 90" fill="none" xmlns="http://www.w3.org/2000/svg">
<path d="M46.4007 5.72388C46.3128 5.72388 46.2304 5.72937 46.1425 5.74585C46.0546 5.76233 45.9722 5.78979 45.8843 5.82275C45.7964 5.85571 45.7195 5.89966 45.6371 5.95459C45.5987 5.98205 45.5492 5.99304 45.5053 6.02051L4.72403 39.7705C4.12528 40.2704 4.04837 41.1548 4.53726 41.7535C4.81741 42.0886 5.21842 42.2589 5.62491 42.2589C5.93802 42.2589 6.25662 42.1545 6.5203 41.9403L11.2499 38.0292V73.2019H7.03116C6.25113 73.2019 5.62491 73.8281 5.62491 74.6082C5.62491 75.3882 6.25113 76.0144 7.03116 76.0144H85.7812C86.5612 76.0144 87.1874 75.3882 87.1874 74.6082C87.1874 73.8281 86.5612 73.2019 85.7812 73.2019H81.5624V38.0292L86.2865 41.9403C86.5502 42.1545 86.8688 42.2644 87.1874 42.2644C87.5884 42.2644 87.9894 42.0886 88.2696 41.7535C88.7639 41.1548 88.6815 40.2704 88.0828 39.7705L47.3015 6.02051C47.2631 5.99304 47.2137 5.98205 47.1752 5.95459C47.0928 5.89966 47.0104 5.85571 46.917 5.82275C46.8401 5.78979 46.7577 5.76233 46.6753 5.74585C46.5819 5.72937 46.4941 5.72388 46.4007 5.72388ZM46.4062 8.93188L78.7499 35.7001V73.2019H14.0624V35.7001L46.4062 8.93188ZM46.4062 19.7589C44.0826 19.7589 42.1874 21.6541 42.1874 23.9832C42.1874 25.8124 43.3684 27.3615 44.9999 27.9437V31.0474C43.8189 30.1575 42.3687 29.6082 40.7812 29.6082H37.9687C34.9419 29.6082 32.3766 31.5472 31.3878 34.2334C31.267 34.3378 31.1626 34.4531 31.0857 34.6069L22.6482 51.4819C22.6427 51.4929 22.6427 51.5094 22.6372 51.5259C22.5988 51.6083 22.5878 51.6962 22.5658 51.7896C22.5439 51.8829 22.5109 51.9763 22.5054 52.0697C22.5054 52.0807 22.4999 52.0917 22.4999 52.1082C22.4999 56.0522 26.823 59.1394 32.3437 59.1394C37.8643 59.1394 42.1874 56.0522 42.1874 52.1082C42.1874 52.0917 42.1819 52.0807 42.1819 52.0697C42.1764 51.9763 42.1435 51.8829 42.1215 51.7896C42.0995 51.6962 42.0885 51.6028 42.0501 51.5204C42.0446 51.5039 42.0446 51.4929 42.0391 51.4819L33.9696 35.3485C34.5244 33.6566 36.0955 32.4207 37.9687 32.4207H40.7812C43.1048 32.4207 44.9999 34.3158 44.9999 36.6394V40.8582C44.9999 41.6382 45.6261 42.2644 46.4062 42.2644C47.1862 42.2644 47.8124 41.6382 47.8124 40.8582V36.6394C47.8124 34.3158 49.7076 32.4207 52.0312 32.4207H54.8437C56.7168 32.4207 58.2934 33.6566 58.8427 35.3485L50.7732 51.4764C50.7677 51.4929 50.7677 51.5039 50.7622 51.5204C50.7238 51.6028 50.7128 51.6962 50.6908 51.7896C50.6634 51.8774 50.6359 51.9708 50.6304 52.0642C50.6304 52.0807 50.6249 52.0917 50.6249 52.1027C50.6249 56.0468 54.948 59.1339 60.4687 59.1339C65.9838 59.1339 70.3124 56.0468 70.3124 52.1027C70.3124 52.0917 70.3014 52.0807 70.3014 52.0642C70.2959 51.9708 70.2685 51.8774 70.2465 51.7896C70.2245 51.6962 70.2135 51.6028 70.1751 51.5204C70.1696 51.5039 70.1696 51.4929 70.1641 51.4764L61.7266 34.6014C61.6497 34.4531 61.5453 34.3323 61.4245 34.2334C60.4357 31.5417 57.8704 29.6027 54.8437 29.6027H52.0312C50.4436 29.6027 48.9934 30.152 47.8124 31.0474V27.9382C49.4439 27.356 50.6249 25.8124 50.6249 23.9777C50.6249 21.6541 48.7298 19.7589 46.4062 19.7589ZM46.4062 22.5769C47.1807 22.5769 47.8124 23.2086 47.8124 23.9832C47.8124 24.7577 47.1807 25.3894 46.4062 25.3894C45.6316 25.3894 44.9999 24.7577 44.9999 23.9832C44.9999 23.2086 45.6316 22.5769 46.4062 22.5769ZM32.3437 38.3807L38.507 50.7019H26.1803L32.3437 38.3807ZM60.4687 38.3807L66.632 50.7019H54.3053L60.4687 38.3807ZM25.7299 53.5144H38.9574C37.9687 55.1349 35.3374 56.3269 32.3437 56.3269C29.3499 56.3269 26.7187 55.1349 25.7299 53.5144ZM53.8549 53.5144H67.0824C66.0937 55.1349 63.4624 56.3269 60.4687 56.3269C57.4749 56.3269 54.8437 55.1349 53.8549 53.5144ZM18.2812 64.7644C17.5011 64.7644 16.8749 65.3906 16.8749 66.1707V68.9832C16.8749 69.7632 17.5011 70.3894 18.2812 70.3894C19.0612 70.3894 19.6874 69.7632 19.6874 68.9832V66.1707C19.6874 65.3906 19.0612 64.7644 18.2812 64.7644ZM25.3124 64.7644C24.5324 64.7644 23.9062 65.3906 23.9062 66.1707V68.9832C23.9062 69.7632 24.5324 70.3894 25.3124 70.3894C26.0924 70.3894 26.7187 69.7632 26.7187 68.9832V66.1707C26.7187 65.3906 26.0924 64.7644 25.3124 64.7644ZM32.3437 64.7644C31.5636 64.7644 30.9374 65.3906 30.9374 66.1707V68.9832C30.9374 69.7632 31.5636 70.3894 32.3437 70.3894C33.1237 70.3894 33.7499 69.7632 33.7499 68.9832V66.1707C33.7499 65.3906 33.1237 64.7644 32.3437 64.7644ZM39.3749 64.7644C38.5949 64.7644 37.9687 65.3906 37.9687 66.1707V68.9832C37.9687 69.7632 38.5949 70.3894 39.3749 70.3894C40.1549 70.3894 40.7812 69.7632 40.7812 68.9832V66.1707C40.7812 65.3906 40.1549 64.7644 39.3749 64.7644ZM46.4062 64.7644C45.6261 64.7644 44.9999 65.3906 44.9999 66.1707V68.9832C44.9999 69.7632 45.6261 70.3894 46.4062 70.3894C47.1862 70.3894 47.8124 69.7632 47.8124 68.9832V66.1707C47.8124 65.3906 47.1862 64.7644 46.4062 64.7644ZM53.4374 64.7644C52.6574 64.7644 52.0312 65.3906 52.0312 66.1707V68.9832C52.0312 69.7632 52.6574 70.3894 53.4374 70.3894C54.2174 70.3894 54.8437 69.7632 54.8437 68.9832V66.1707C54.8437 65.3906 54.2174 64.7644 53.4374 64.7644ZM60.4687 64.7644C59.6886 64.7644 59.0624 65.3906 59.0624 66.1707V68.9832C59.0624 69.7632 59.6886 70.3894 60.4687 70.3894C61.2487 70.3894 61.8749 69.7632 61.8749 68.9832V66.1707C61.8749 65.3906 61.2487 64.7644 60.4687 64.7644ZM67.4999 64.7644C66.7199 64.7644 66.0937 65.3906 66.0937 66.1707V68.9832C66.0937 69.7632 66.7199 70.3894 67.4999 70.3894C68.2799 70.3894 68.9062 69.7632 68.9062 68.9832V66.1707C68.9062 65.3906 68.2799 64.7644 67.4999 64.7644ZM74.5312 64.7644C73.7511 64.7644 73.1249 65.3906 73.1249 66.1707V68.9832C73.1249 69.7577 73.7511 70.3894 74.5312 70.3894C75.3112 70.3894 75.9374 69.7632 75.9374 68.9832V66.1707C75.9374 65.3906 75.3112 64.7644 74.5312 64.7644Z" fill="#E4B564"/>
</svg>

<svg width="90" height="90" fill="none" xmlns="http://www.w3.org/2000/svg"><path d="M46.4 5.724a1.33 1.33 0 00-.516.099 1.195 1.195 0 00-.247.132c-.038.027-.088.038-.132.066L4.724 39.77a1.416 1.416 0 00-.187 1.983 1.42 1.42 0 001.983.187l4.73-3.912v35.173H7.03c-.78 0-1.406.626-1.406 1.406 0 .78.626 1.406 1.406 1.406h78.75c.78 0 1.406-.626 1.406-1.406 0-.78-.626-1.406-1.406-1.406h-4.219V38.029l4.725 3.911c.263.215.582.324.9.324.401 0 .802-.175 1.083-.51a1.41 1.41 0 00-.187-1.983L47.3 6.02c-.038-.028-.087-.039-.126-.066a1.145 1.145 0 00-.258-.132 1.238 1.238 0 00-.242-.077 1.543 1.543 0 00-.274-.022zm.006 3.208L78.75 35.7v37.502H14.062V35.7L46.406 8.932zm0 10.827a4.228 4.228 0 00-4.219 4.224c0 1.83 1.181 3.378 2.813 3.96v3.104c-1.181-.89-2.631-1.439-4.219-1.439H37.97c-3.027 0-5.592 1.94-6.581 4.625-.121.105-.225.22-.302.374l-8.438 16.875c-.005.01-.005.027-.01.044-.04.082-.05.17-.072.264-.022.093-.055.186-.06.28 0 .01-.006.022-.006.038 0 3.944 4.323 7.031 9.844 7.031 5.52 0 9.843-3.087 9.843-7.03 0-.017-.005-.028-.005-.04-.006-.093-.038-.186-.06-.28-.023-.093-.033-.186-.072-.269-.005-.016-.005-.027-.01-.038l-8.07-16.133c.554-1.692 2.126-2.928 3.999-2.928h2.812A4.227 4.227 0 0145 36.639v4.22a1.4 1.4 0 001.406 1.405c.78 0 1.406-.626 1.406-1.406V36.64a4.227 4.227 0 014.22-4.218h2.812c1.873 0 3.45 1.236 3.999 2.928l-8.07 16.127c-.005.017-.005.028-.01.044-.04.083-.05.176-.072.27a1.17 1.17 0 00-.06.274c0 .017-.006.028-.006.039 0 3.944 4.323 7.03 9.844 7.03 5.515 0 9.843-3.086 9.843-7.03 0-.011-.01-.022-.01-.039-.006-.093-.034-.187-.056-.274-.021-.094-.032-.187-.07-.27-.006-.016-.006-.027-.012-.044l-8.437-16.875a1.17 1.17 0 00-.302-.368c-.99-2.691-3.555-4.63-6.581-4.63H52.03c-1.587 0-3.038.549-4.219 1.444v-3.109c1.632-.582 2.813-2.126 2.813-3.96a4.227 4.227 0 00-4.219-4.22zm0 2.818c.775 0 1.406.632 1.406 1.406 0 .775-.631 1.406-1.406 1.406A1.409 1.409 0 0145 23.983a1.41 1.41 0 011.406-1.406zM32.344 38.38l6.163 12.32H26.18l6.164-12.32zm28.125 0l6.163 12.32H54.305l6.164-12.32zm-34.74 15.133h13.228c-.988 1.62-3.62 2.813-6.613 2.813-2.994 0-5.625-1.192-6.614-2.813zm28.126 0h13.227c-.988 1.62-3.62 2.813-6.613 2.813-2.994 0-5.625-1.192-6.614-2.813zM18.28 64.764c-.78 0-1.406.627-1.406 1.407v2.812c0 .78.626 1.406 1.406 1.406.78 0 1.406-.626 1.406-1.406v-2.812c0-.78-.626-1.407-1.406-1.407zm7.031 0c-.78 0-1.406.627-1.406 1.407v2.812c0 .78.626 1.406 1.406 1.406.78 0 1.407-.626 1.407-1.406v-2.812c0-.78-.627-1.407-1.407-1.407zm7.032 0c-.78 0-1.407.627-1.407 1.407v2.812c0 .78.627 1.406 1.407 1.406s1.406-.626 1.406-1.406v-2.812c0-.78-.626-1.407-1.406-1.407zm7.03 0c-.78 0-1.405.627-1.405 1.407v2.812c0 .78.626 1.406 1.406 1.406.78 0 1.406-.626 1.406-1.406v-2.812c0-.78-.626-1.407-1.406-1.407zm7.032 0c-.78 0-1.406.627-1.406 1.407v2.812c0 .78.626 1.406 1.406 1.406.78 0 1.406-.626 1.406-1.406v-2.812c0-.78-.626-1.407-1.406-1.407zm7.031 0c-.78 0-1.406.627-1.406 1.407v2.812c0 .78.626 1.406 1.406 1.406.78 0 1.407-.626 1.407-1.406v-2.812c0-.78-.627-1.407-1.407-1.407zm7.032 0c-.78 0-1.407.627-1.407 1.407v2.812c0 .78.627 1.406 1.407 1.406s1.406-.626 1.406-1.406v-2.812c0-.78-.626-1.407-1.406-1.407zm7.03 0c-.78 0-1.405.627-1.405 1.407v2.812c0 .78.626 1.406 1.406 1.406.78 0 1.406-.626 1.406-1.406v-2.812c0-.78-.626-1.407-1.406-1.407zm7.032 0c-.78 0-1.406.627-1.406 1.407v2.812c0 .775.626 1.406 1.406 1.406.78 0 1.406-.626 1.406-1.406v-2.812c0-.78-.626-1.407-1.406-1.407z" fill="#E4B564"/></svg>
